!!!COM: Beethoven
!!!OTL: Six Variations on an Original Theme
!!!Variation: Variation 4 a
**function	**harm	**kern	**kern
*	*	*clefF4	*clefG2
*	*	*k[f#c#]	*k[f#c#]
*M2/4	*M2/4	*M2/4	*M2/4
*D:	*D:	*D:	*D:
=65	=65	=65	=65
2T	2I	(8CC#L	(8eL 8a
.	.	8DDJ)	8dJ) 8f#
.	.	(8CC#L	(8eL 8a
.	.	8DDJ)	8dJ) 8f#
=66	=66	=66	=66
2T	2I	(16CC#LL	(16eLL 16a
.	.	16DD)	16d) 16f#
.	.	(16CC#	(16e 16a
.	.	16DDJJ)	16dJJ) 16f#
.	.	(16CC#LL	(16eLL 16a
.	.	16DDJJ)	16dJJ) 16f#
.	.	8r	24fff#LL
.	.	.	24eee
.	.	.	24dddJJ
=67	=67	=67	=67
*	*	*clefG2	*
2T	2V7	8AL 8e 8g	24ccc#LL
.	.	.	24bb
.	.	.	24aaJ
.	.	8AJ 8e 8g	24ggL
.	.	.	24ff#
.	.	.	24eeJJ
.	.	8AL 8e 8g	24ddLL
.	.	.	24cc#
.	.	.	24bJ
.	.	8AJ 8e 8g	24aL
.	.	.	24b
.	.	.	24cc#JJ
=68	=68	=68	=68
8T	8I	8d'L 8f#'	8dd'L
8T	8V7	8A'J 8e' 8g'	8cc#'J 8ee'
4T	4I	8d' 8f#'	8dd' 8ff#'
.	.	8r	8r
=69	=69	=69	=69
*	*	*clefF4	*
2T	2I	(8CC#L	(8eL 8a
.	.	8DDJ)	8dJ) 8f#
.	.	(8CC#L	(8eL 8a
.	.	8DDJ)	8dJ) 8f#
=70	=70	=70	=70
2T	2I	(16CC#LL	(16eLL 16a
.	.	16DD)	16d) 16f#
.	.	(16CC#	(16e 16a
.	.	16DDJJ)	16dJJ) 16f#
.	.	(16CC#LL	(16eLL 16a
.	.	16DDJJ)	16dJJ) 16f#
.	.	8r	24gggLL
.	.	.	24fff#
.	.	.	24eeeJJ
=71	=71	=71	=71
*	*	*clefG2	*
4.T	4.I	8dL 8f#	24dddLL
.	.	.	24ccc#
.	.	.	24bbJ
.	.	8dJ 8f#	32aaLL
.	.	.	32gg
.	.	.	32ff#
.	.	.	32eeJJJ
.	.	8dL 8f#	24ddLL
.	.	.	24cc#
.	.	.	24bJ
*	*	*clefF4	*
8T	8V7/vi	8F#J 8c# 8e	24a#L
.	.	.	24ff#
.	.	.	24a#JJ
=72	=72	=72	=72
2T	2vi	8B'L 8d'	8b'L
.	.	8B'J 8d'	8b'J
.	.	8B' 8d'	8b'
.	.	8r	8r
*-	*-	*-	*-
